X: 7291
T: Cleaning The Hen House
R: reel
M: 4/4
K: Dmajor
AF~F2 dF~F2|BAFB AF~F2|AF~F2 dFdB|AFDF E2FG|
AF~F2 dF~F2|BAFB AF~F2|BABc dfef|dBAF E3A||
BABc dfef|d2ef dBBA|BABc dfef|dBAF E3A|
BABc dfef|d2ef df~f2|bfaf egfe|dBAF E2FG||

